images/Tech_angular.svg

<svg width="133" height="36" viewBox="0 0 133 36" fill="none" xmlns="http://www.w3.org/2000/svg">
<path fill-rule="evenodd" clip-rule="evenodd" d="M39.1169 26.7011V10.3375H41.2208L51.2208 23.5063V10.3375H53.2208V26.7011H51.1169L41.1169 13.4024V26.7011H39.1169ZM69.5065 26.0518C68.1819 26.5453 66.7533 26.805 65.2468 26.805C59.3247 26.805 56.3637 23.9738 56.3637 18.2855C56.3637 12.9089 59.2208 10.2076 64.9351 10.2076C66.5715 10.2076 68.104 10.4414 69.5065 10.8829V12.7011C68.104 12.1557 66.6494 11.8959 65.1689 11.8959C60.7014 11.8959 58.4676 14.0258 58.4676 18.2336C58.4676 22.779 60.6754 25.0388 65.065 25.0388C65.7663 25.0388 66.5455 24.9349 67.4027 24.7531V19.2725H69.5065V26.0518ZM72.8832 20.3894V10.3375H74.9871V20.3894C74.9871 23.5323 76.5455 25.1167 79.6884 25.1167C82.8052 25.1167 84.3897 23.5323 84.3897 20.3894V10.3375H86.4936V20.3894C86.4936 24.6751 84.2338 26.831 79.6884 26.831C75.1429 26.831 72.8832 24.6751 72.8832 20.3894ZM92.3637 10.3375V24.9868H100.935V26.7011H90.2598V10.3375H92.3637ZM103.974 26.7011H101.766L109.896 8.18164L118.026 26.7011H115.688L113.584 21.5583H108.182L108.753 19.844H112.883L109.818 12.4414L103.974 26.7011ZM120.286 26.7011V10.3375H127.273C130.39 10.3375 131.948 11.6362 131.948 14.2596C131.948 16.3894 130.416 17.9738 127.377 18.9868L132.987 26.7011H130.208L125.013 19.3505V17.9738C128.13 17.4803 129.714 16.2855 129.714 14.3635C129.714 12.857 128.857 12.1037 127.117 12.1037H122.442V26.7011H120.286Z" fill="#989898"/>
<path fill-rule="evenodd" clip-rule="evenodd" d="M0 5.97403L16.7532 0L33.9481 5.87013L31.1688 28.026L16.7532 36L2.57143 28.1299L0 5.97403Z" fill="#989898"/>
<path fill-rule="evenodd" clip-rule="evenodd" d="M33.9481 5.87013L16.7533 0V36L31.1689 28.026L33.9481 5.87013Z" fill="#989898"/>
<path fill-rule="evenodd" clip-rule="evenodd" d="M16.7792 4.20801L6.33765 27.4288L10.2338 27.3509L12.3376 22.1041H21.6623L23.948 27.4028L27.6623 27.4807L16.7792 4.20801ZM16.8052 11.6626L20.3376 19.0392H13.7143L16.8052 11.6626Z" fill="white"/>
</svg>

<?xml version="1.0" encoding="UTF-8" standalone="no"?><!DOCTYPE svg PUBLIC "-//W3C//DTD SVG 1.1//EN" "http://www.w3.org/Graphics/SVG/1.1/DTD/svg11.dtd"><svg width="100%" height="100%" viewBox="0 0 133 36" version="1.1" xmlns="http://www.w3.org/2000/svg" xmlns:xlink="http://www.w3.org/1999/xlink" xml:space="preserve" xmlns:serif="http://www.serif.com/" style="fill-rule:evenodd;clip-rule:evenodd;stroke-linejoin:round;stroke-miterlimit:2;"><path d="M39.117,26.701l0,-16.364l2.104,0l10,13.169l0,-13.169l2,0l0,16.364l-2.104,0l-10,-13.299l0,13.299l-2,0Zm30.39,-0.649c-1.325,0.493 -2.754,0.753 -4.26,0.753c-5.922,0 -8.883,-2.831 -8.883,-8.52c0,-5.376 2.857,-8.077 8.571,-8.077c1.636,0 3.169,0.233 4.572,0.675l-0.001,1.818c-1.402,-0.545 -2.857,-0.805 -4.337,-0.805c-4.468,0 -6.701,2.13 -6.701,6.338c0,4.545 2.207,6.805 6.597,6.805c0.701,0 1.481,-0.104 2.338,-0.286l0,-5.481l2.104,0l0,6.78Zm3.376,-5.663l0,-10.052l2.104,0l0,10.052c0,3.143 1.559,4.728 4.701,4.728c3.117,0 4.702,-1.585 4.702,-4.728l0,-10.052l2.104,0l0,10.052c0,4.286 -2.26,6.442 -6.806,6.442c-4.545,0 -6.805,-2.156 -6.805,-6.442Zm19.481,-10.052l0,14.65l8.571,0l0,1.714l-10.675,0l0,-16.364l2.104,0Zm11.61,16.364l-2.208,0l8.13,-18.519l8.13,18.519l-2.338,0l-2.104,-5.143l-5.402,0l0.571,-1.714l4.13,0l-3.065,-7.403l-5.844,14.26Zm16.312,0l0,-16.364l6.987,0c3.117,0 4.675,1.299 4.675,3.923c0,2.129 -1.532,3.714 -4.571,4.727l5.61,7.714l-2.779,0l-5.195,-7.351l0,-1.376c3.117,-0.494 4.701,-1.689 4.701,-3.611c0,-1.506 -0.857,-2.259 -2.597,-2.259l-4.675,0l0,14.597l-2.156,0Z" style="fill:#9ea5a7;"/><path d="M16.753,0l17.195,5.87l-2.779,22.156l-14.416,7.974l-14.182,-7.87l-2.571,-22.156l16.753,-5.974Zm0.026,4.208l-10.441,23.221l3.896,-0.078l2.104,-5.247l9.324,0l2.286,5.299l3.714,0.078l-10.883,-23.273Zm0.026,7.455l3.533,7.376l-6.624,0l3.091,-7.376Z" style="fill:#9ea5a7;"/></svg>
